assets/cards-tab/Asset/lock.svg

<svg width="41" height="48" viewBox="0 0 41 48" fill="none" xmlns="http://www.w3.org/2000/svg">
<rect y="7.38428" width="40.6155" height="40.6155" rx="20.3078" fill="#0E2C4E"/>
<path d="M20.8307 0.0136719C26.1955 0.28587 30.4616 4.72188 30.4616 10.1543V14.1119C30.4616 14.3826 30.5878 14.6368 30.7976 14.8078C34.5351 17.8545 36.9224 22.4945 36.9225 27.6924C36.9224 36.8687 29.4837 44.3076 20.3073 44.3076C11.131 44.3075 3.69215 36.8687 3.69204 27.6924C3.6921 22.494 6.07979 17.8535 9.81786 14.8069C10.0277 14.6359 10.154 14.3816 10.154 14.1109V10.1543C10.154 4.54647 14.7004 0 20.3083 0L20.8307 0.0136719ZM20.3073 21.2305C17.7584 21.2307 15.692 23.2978 15.692 25.8467C15.6923 27.6204 16.6936 29.1594 18.1614 29.9318C18.3533 30.0328 18.4616 30.245 18.4616 30.4619V33.2305C18.4617 34.2499 19.2879 35.077 20.3073 35.0771C21.3268 35.0771 22.1538 34.25 22.154 33.2305V30.4619C22.154 30.2455 22.26 30.034 22.4516 29.9333C23.9206 29.1613 24.9233 27.6213 24.9235 25.8467C24.9235 23.2977 22.8563 21.2305 20.3073 21.2305ZM20.3083 3.49707C16.6316 3.49707 13.651 6.47765 13.651 10.1543V11.1279C13.651 11.7584 14.2999 12.1841 14.8961 11.9788C16.5923 11.3946 18.4127 11.0772 20.3073 11.0771C22.2026 11.0771 24.0236 11.3949 25.7203 11.9796C26.3165 12.185 26.9655 11.7592 26.9655 11.1287V10.1543C26.9655 6.47782 23.9847 3.49735 20.3083 3.49707Z" fill="#5CC06B"/>
</svg>

<svg xmlns="http://www.w3.org/2000/svg" width="41" height="48" fill="none" viewBox="0 0 41 48"><rect width="40.615" height="40.615" y="7.384" fill="#0e2c4e" rx="20.308"/><path fill="#5cc06b" d="M20.83.014c5.366.272 9.632 4.708 9.632 10.14v3.958a.9.9 0 0 0 .336.696 16.58 16.58 0 0 1 6.125 12.884c0 9.177-7.44 16.616-16.616 16.616S3.692 36.868 3.692 27.692c0-5.198 2.388-9.838 6.126-12.885a.9.9 0 0 0 .336-.696v-3.957C10.154 4.546 14.7 0 20.308 0zm-.523 21.217a4.616 4.616 0 0 0-2.146 8.7c.192.102.3.314.3.53v2.77a1.847 1.847 0 1 0 3.693 0v-2.77a.59.59 0 0 1 .298-.528 4.614 4.614 0 0 0-2.145-8.702m.001-17.734a6.657 6.657 0 0 0-6.657 6.657v.974c0 .63.649 1.056 1.245.85a16.6 16.6 0 0 1 5.411-.9c1.896 0 3.717.317 5.413.902.597.205 1.245-.22 1.245-.851v-.975a6.66 6.66 0 0 0-6.657-6.657"/></svg>
